X: 42
T:Tikeli. JC.041
T:Tekeli,aka. JC.041
M:6/8
L:1/8
Q:120
S:John Clare,Poet,Helpston. (1793-1864)
R:Jig
O:England
A:Northamptonshire
N:
Z:vmp.P. Headford
K:D
d2d dcd|BcdA2A|ABc def|g2ec2A|!
d2d dcd|BcdA2A|ABc def|gecd3:|!
|:d2ef2f|fgfe2d|{e}e2d{f}e2d|{f}e2de2f|!
d2ef2f|fgfe2d|e2de2f|d3d2z:|]
